X:50
T:Planxty Hewlett
M:6/8
L:1/8
K:D
A2|: D2 D2 FG|AB c2 A2|d2 f2 fg|fe d3 B|\
A2 F2 F2|G2 GB AG|AF D2 D2|D4 A2 :|
A2 D2 AB|A2 D2 AB|A2 d2 d2|dc BA GF|G2 E2 GA|\
G2 E2 GA|G2 GA BG|AF D3 E|
FE F2 G2|AB c2 A2|fe fg ag|fe d3 B|\
A2 AB AF|G3 A BG|AF D2 D2 |D4 A2 ||
